X: 24666
T: Mack's
R: slip jig
M: 9/8
K: Eminor
|:B,Ec BAF {F}GFD|B,DE GAG FB,G|B,Ec BAF {F}GFG|BAF DFE DB,A,|
B,Ec BAF {F}GFD|B,DE GAG FB,G|B,E/E/E EFG FG/F/D|1 FGG GAB F2D:|2 FG/G/G GAB cdf||
|:e2E GEA FA/F/D|B,2D GAB def|e2E GEA FA/F/D|cCB ABc F2D|
e2E GEA FA/F/D|B,2D BDc A2F|ECE EFG FG/F/D|1 FG/G/G GAB cdf:|2 FGG GAB {E}FED||

